X:1
T:Title
%%score { ( 1 3 4 ) | ( 2 5 ) }
L:1/8
M:4/4
K:G
V:1 treble nm="Grand Piano"
V:3 treble 
V:4 treble 
V:2 bass 
V:5 bass 
V:1
 z4 z2[Q:1/4=100] [EG]2 | [EGc]2 [EGc]2 z2 z G | [EA]2 [EA]2 z2 z G | E2 EE [G,CE]2 [G,_B,E]2 | %4
 [G,B,=F]6 [DF]2 | [=FB]2 [FB]2 z2 z G | [EA]2 [EA]2 [EG]2 [EA]2 | [DB]2 [Gd]2 [GB]2 [FA]2 | %8
[M:3/4] G6 |[M:1/4] A>B |[M:4/4] [Ec]2 [EA]4 [Ec]2 | [EA]2 [CEG]4 C>D | %12
 E2 G2[K:bass] [G,CE]2 [=F,B,D]2 | C6 E2 | D2[K:treble] E2 F3 E | D2 G4 [Ec]2 | %16
 [DB] [Fc]3 [GB]2 [FA]2 | G6 A>B | [Ec]2 [EA]4 [Ec]2 | [EA]2 [EG]4 E>=F | G2 c2 [Fd]2 [Fc]2 | %21
 B6 z2 | [EGc]2 [EGc]2 [CEG_Bc]3 [CEGBc] | %23
[M:9/8] [C=FAc]2 [CFAc]- [CFAc] [C^D^Gc]2- [CDGc] [CDB]2[Q:1/4=99][Q:1/4=97][Q:1/4=96] | %24
 [CE]2- [CEc]- [CEc] d2- [G,d]2 c[Q:1/4=94][Q:1/4=93][Q:1/4=91][Q:1/4=90][Q:1/4=88][Q:1/4=87][Q:1/4=85][Q:1/4=84][Q:1/4=82][Q:1/4=81][Q:1/4=79][Q:1/4=78][Q:1/4=76] | %25
[M:3/4] [Ec]6 |] %26
V:2
 z4 z2 [C,C]2 | [C,G,]2 [G,,G,]2 [C,G,]2 z E | [C,G,]2 [G,,G,]2 [C,G,]2 z E | %3
 [C,G,C]2 CC C,2 ^C,2 | D,2 G,,2 A,,2 B,,2 | [B,,G,]2 [G,,G,]2 [B,,G,]2 z =F | %6
 [C,G,]2 [G,,G,]2 [C,G,]2 [^C,G,]2 | [D,G,]2 [D,B,]2 [D,D]2 [D,C]2 |[M:3/4] [G,B,]6 | %9
[M:1/4][K:treble] [G,F]>[G,=F] |[M:4/4][K:bass] [C,G,]2 [C,C]4 [C,G,]2 | [C,G,]2 C,4 C,>D, | %12
 E,2 G,2 G,,2 G,,2 | [C,E,]6 [C,G,C]2 | [D,=F,C]2 [D,G,C]2 [D,A,C]3 [D,G,C] | %15
 [G,B,]2 [G,B,D]4 [C,G,]2 | [D,G,] [D,D]3 [D,D]2 [D,C]2 | [G,B,]6[K:treble] [G,F]>[G,=F] | %18
 [C,G,]2 [C,C]4 [C,G,]2 | [C,C]2 [C,C]4 E,>=F, | [G,E]2 [E,G,E]2 [D,A,]2 [D,D]2 | G4 z4[K:bass] | %22
 [C,G,C]2 [C,G,C]2 [_B,,_B,]3 [B,,B,] | %23
[M:9/8] [A,,A,]2 [A,,A,]- [A,,A,] [^G,,^G,]2- [G,,G,] z z/ ^G/ | %24
 G,,2 [E,,E,]- [E,,E,][D,,D,][G,,G,] C,2 =F |[M:3/4] [C,G,]6 |] %26
V:3
 x8 | z4 [EGB]4 | z4 [EG]4 | x8 | x8 | z4 [=FB]4 | x8 | x8 |[M:3/4] x6 |[M:1/4] x2 |[M:4/4] x8 | %11
 x8 | x4[K:bass] x4 | x8 | x2[K:treble] x6 | x8 | x8 | x8 | x8 | x8 | x8 | z4 =F2 G2 | x8 | %23
[M:9/8] x9 | .[G,G]3 z [FAc][=FB]- [FB]2 z |[M:3/4] x6 |] %26
V:4
 x8 | z4 z2 G,2 | z4 z2 G,2 | x8 | x8 | z4 z2 G,2 | x8 | x8 |[M:3/4] x6 |[M:1/4] x2 |[M:4/4] x8 | %11
 x8 | x4[K:bass] x4 | x8 | x2[K:treble] x6 | x8 | x8 | x8 | x8 | x8 | x8 | x8 | x8 |[M:9/8] x9 | %24
 x9 |[M:3/4] x6 |] %26
V:5
 x8 | z4 z2 G,,2 | z4 z2 G,,2 | z2 [C,G,]2 z4 | x8 | z4 z2 G,,2 | x8 | x8 |[M:3/4] x6 | %9
[M:1/4][K:treble] x2 |[M:4/4][K:bass] x8 | x8 | x8 | x8 | x8 | x8 | x8 | x6[K:treble] x2 | x8 | %19
 x8 | x8 | [G,D]6[K:bass] G,2 | x8 |[M:9/8] z3 z3 z [F,,F,]2 | x9 |[M:3/4] x6 |] %26

